X:16
T:Lady Gray's Reel
C:from Edward Winder's ms2
M:2/4
L:1/8
K:G
dA FA|dA FA|GB AF|E/2E/2E E2|dA FA|dA FA|GB AF|D/2D/2D D2:|
|:fd fa|fd fa|fd ad|e/2e/2e e2|fd fa|fd fa|fd ec|d/2d/2d d2:|
%%vskip 1cm
